X:6631
T:The Clipper (S. Turner)
O:england
C:Eel Grinders
M:3/4
L:1/4
K:C
c/d/|ea>a|a/g/ f/e/ d/c/|ddc/d/|ee>f|\
d2 c/d/ |edc|B>AG|AA/B/ c/d/|
ea>a|a/g/ f/e/ d/c/|ddc/d/|ee>f|\
d2 c/d/ |edc|B>AG|AA/B/:|
|:c/d/|eab|c'>ba|gga|e2d/c/|dd>e|\
f/e/d>c|1 cd>c|B2c/d/:|2 ccB|AA/B/||


